src/frontend/src/assets/img/dough-light.svg

<svg width="36" height="36" viewBox="0 0 36 36" fill="none" xmlns="http://www.w3.org/2000/svg">
<mask id="mask0" mask-type="alpha" maskUnits="userSpaceOnUse" x="0" y="0" width="36" height="36">
<circle cx="18" cy="18" r="18" fill="#C4C4C4"/>
</mask>
<g mask="url(#mask0)">
<path d="M111.723 59.9052C112.843 67.0593 114.188 75.2032 112.619 81.9974C110.647 90.5913 106.478 103.19 101.503 110.119C91.8207 123.572 76.7148 133.381 55.7818 136.71C34.3109 140.085 17.2327 135.54 2.44066 121.907C-8.36204 111.964 -16.4304 98.8252 -18.851 83.1672C-20.0164 75.6982 -20.5095 67.5992 -19.2992 60.5351C-16.6994 45.4621 -8.98958 33.3136 1.81311 23.2799C11.0918 14.731 22.522 7.35194 36.2383 5.19222C53.8991 2.40258 69.5877 7.6669 83.3488 16.8457C98.5892 27.0594 108.675 40.4677 111.723 59.9052Z" fill="#E06F00"/>
<path d="M109.93 60.2202C111.006 67.1943 112.35 75.1133 110.826 81.7274C108.899 90.0963 104.865 102.38 100.024 109.084C90.6104 122.177 75.908 131.716 55.5577 134.956C34.6695 138.24 18.0844 133.831 3.69575 120.557C-6.88283 110.839 -14.6823 98.0603 -17.1028 82.8523C-18.2234 75.6082 -18.7165 67.6892 -17.5511 60.8501C-15.0409 46.182 -7.51037 34.3485 3.02338 24.6297C12.0331 16.3058 23.1496 9.15172 36.5073 7.037C53.7199 4.33734 68.9602 9.46668 82.3627 18.3755C97.1548 28.2293 106.971 41.2776 109.93 60.2202Z" fill="#F4810F"/>
<path d="M103.565 61.975C104.551 68.1842 105.716 75.2483 104.327 81.1425C102.579 88.6115 98.9478 99.5451 94.5998 105.574C86.128 117.228 74.3391 126.677 54.6164 128.656C35.7005 130.546 20.9532 127.712 8.04375 115.878C-1.41422 107.239 -8.40683 95.8556 -10.5584 82.2674C-11.5894 75.7882 -11.9928 68.7691 -10.917 62.6499C-8.63096 49.5566 -1.90729 39.0279 7.5955 30.344C15.7087 22.92 25.7046 16.5308 37.6727 14.641C53.1372 12.2114 65.2846 14.731 77.2976 22.695C90.5656 31.4689 100.92 45.1021 103.565 61.975Z" fill="#E06F00"/>
<path d="M107.155 61.2298C108.193 67.8423 109.43 75.3497 107.996 81.6142C106.116 89.5194 102.259 101.203 97.6597 107.567C88.659 119.997 76.0977 130.04 55.1785 132.128C35.1001 134.166 19.4231 131.084 5.72429 118.555C-4.31492 109.357 -11.7825 97.2754 -14.008 82.8075C-15.0959 75.9464 -15.541 68.4389 -14.4036 61.9259C-11.9803 48.0048 -4.80946 36.7685 5.22975 27.5707C13.8348 19.6655 24.4674 12.8541 37.1772 10.8157C53.596 8.23036 66.5035 10.9151 79.2627 19.3672C93.3572 28.7639 104.336 43.2816 107.155 61.2298Z" fill="#B51212"/>
<path d="M104.981 61.7746C105.972 68.1219 107.16 75.3122 105.774 81.3619C103.991 88.9489 100.276 100.156 95.819 106.305C87.152 118.206 75.0676 127.876 54.9105 129.909C35.5458 131.843 20.4404 128.917 7.21694 116.867C-2.44064 108.04 -9.62192 96.4367 -11.8011 82.552C-12.8411 75.9568 -13.2868 68.7665 -12.1973 62.5184C-9.86955 49.1792 -2.9359 38.3689 6.72168 29.5422C15.0421 21.9552 25.2444 15.4096 37.5269 13.4757C53.3257 10.9963 65.8063 13.5748 78.0887 21.7073C91.7084 30.5836 102.307 44.5179 104.981 61.7746Z" fill="#FFE9B0"/>
<path d="M34.7718 26.8889C34.3718 29.3778 31.3496 30.8 31.9718 31.0667C32.594 31.2889 35.8384 29.6 34.7718 26.8889Z" fill="#41B619"/>
</g>
</svg>

<svg width="36" height="36" viewBox="0 0 36 36" fill="none" xmlns="http://www.w3.org/2000/svg"><mask id="a" maskUnits="userSpaceOnUse" x="0" y="0" width="36" height="36"><circle cx="18" cy="18" r="18" fill="#C4C4C4"/></mask><g mask="url(#a)"><path d="M111.723 59.905c1.12 7.154 2.465 15.298.896 22.092-1.972 8.594-6.141 21.193-11.116 28.122-9.682 13.453-24.788 23.262-45.721 26.591-21.471 3.375-38.55-1.17-53.341-14.803-10.803-9.943-18.871-23.082-21.292-38.74-1.165-7.469-1.659-15.568-.448-22.632C-16.7 45.462-8.99 33.314 1.813 23.28c9.279-8.55 20.709-15.928 34.425-18.088 17.661-2.79 33.35 2.475 47.11 11.654 15.241 10.213 25.327 23.622 28.375 43.06z" fill="#E06F00"/><path d="M109.93 60.22c1.076 6.974 2.42 14.893.896 21.507-1.927 8.37-5.961 20.653-10.802 27.357-9.414 13.093-24.116 22.632-44.466 25.872-20.889 3.284-37.474-1.125-51.862-14.399-10.579-9.718-18.378-22.497-20.799-37.705-1.12-7.244-1.613-15.163-.448-22.002 2.51-14.668 10.04-26.502 20.574-36.22 9.01-8.324 20.127-15.478 33.484-17.593 17.213-2.7 32.453 2.43 45.856 11.338C97.155 28.23 106.97 41.278 109.93 60.22z" fill="#F4810F"/><path d="M103.565 61.975c.986 6.21 2.151 13.273.762 19.167-1.748 7.47-5.38 18.403-9.727 24.432-8.472 11.654-20.26 21.103-39.984 23.082-18.916 1.89-33.663-.944-46.572-12.778-9.458-8.639-16.45-20.022-18.602-33.61-1.031-6.48-1.435-13.499-.359-19.618 2.286-13.093 9.01-23.622 18.512-32.306 8.114-7.424 18.11-13.813 30.078-15.703 15.464-2.43 27.612.09 39.625 8.054 13.268 8.774 23.622 22.407 26.267 39.28z" fill="#E06F00"/><path d="M107.155 61.23c1.038 6.612 2.275 14.12.841 20.384-1.88 7.905-5.737 19.589-10.336 25.953-9.001 12.43-21.562 22.473-42.481 24.561-20.079 2.038-35.756-1.044-49.455-13.573-10.039-9.198-17.506-21.28-19.732-35.748-1.088-6.86-1.533-14.368-.396-20.881C-11.98 48.005-4.809 36.769 5.23 27.57c8.605-7.905 19.237-14.717 31.947-16.755 16.419-2.586 29.327.1 42.086 8.551 14.094 9.397 25.073 23.915 27.892 41.863z" fill="#B51212"/><path d="M104.981 61.775c.991 6.347 2.179 13.537.793 19.587-1.783 7.587-5.498 18.794-9.955 24.943-8.667 11.901-20.751 21.571-40.909 23.604-19.364 1.934-34.47-.992-47.693-13.042-9.658-8.827-16.839-20.43-19.018-34.315-1.04-6.595-1.486-13.786-.396-20.034C-9.87 49.18-2.936 38.368 6.722 29.542c8.32-7.587 18.522-14.132 30.805-16.066 15.799-2.48 28.28.099 40.562 8.231 13.62 8.877 24.218 22.81 26.892 40.068z" fill="#FFE9B0"/><path d="M34.772 26.889c-.4 2.489-3.422 3.911-2.8 4.178.622.222 3.866-1.467 2.8-4.178z" fill="#41B619"/></g></svg>
